src/youtube.svg

<svg viewBox="0 0 16 16" fill="none" xmlns="http://www.w3.org/2000/svg"><path d="M6.56999 9.84001V5.84001L10.32 7.84001L6.56999 9.84001ZM14.92 6.00001C14.82 4.65001 14.58 3.26001 12.86 3.16001C9.62611 2.97002 6.38387 2.97002 3.14999 3.16001C1.41999 3.26001 1.14999 4.66001 1.07999 6.00001C0.972157 7.33116 0.972157 8.66886 1.07999 10C1.17999 11.35 1.41999 12.74 3.14999 12.84C6.38387 13.03 9.62611 13.03 12.86 12.84C14.58 12.74 14.86 11.34 14.92 10C15.0278 8.66886 15.0278 7.33116 14.92 6.00001Z" fill="#111111"/></svg>

<svg viewBox="0 0 16 16" fill="none" xmlns="http://www.w3.org/2000/svg"><path d="M6.57 9.84v-4l3.75 2-3.75 2ZM14.92 6c-.1-1.35-.34-2.74-2.06-2.84a82.781 82.781 0 0 0-9.71 0c-1.73.1-2 1.5-2.07 2.84a24.77 24.77 0 0 0 0 4c.1 1.35.34 2.74 2.07 2.84 3.234.19 6.476.19 9.71 0 1.72-.1 2-1.5 2.06-2.84a24.777 24.777 0 0 0 0-4Z" fill="#111111"/></svg>
